X: 39593
T: Teelin, The
R: reel
M: 4/4
K: Amixolydian
|:A>G|(3Bcd e>g f>de>A|(3Bcd e>f g>fg>A|(3Bcd e>g f<de>a|g<ed>B A2:|
A>^g|a2 e>a f>de>d|c>AB>A c<ee>^g|(3aaa e>a f<de>a|g>ed>B (3AAA A>^g|
a2 e>a f<ae<a|c>AB>A c<ee>^g|(3aaa e>g f>^e (3fga|g<ed>B A2||

